svg/color/busd.svg

<svg width="64" height="65" viewBox="0 0 64 65" fill="none" xmlns="http://www.w3.org/2000/svg">
<rect y="0.303711" width="64" height="64" rx="32" fill="white"/>
<rect x="0.5" y="0.803711" width="63" height="63" rx="31.5" stroke="#070B14" stroke-opacity="0.15"/>
<path d="M31.867 7.69714L37.9454 13.9221L22.6395 29.228L16.561 23.1496L31.867 7.69714Z" fill="#F0B90B" stroke="#F0B90B" stroke-width="0.983957"/>
<path d="M41.0945 16.9247L47.173 23.1496L22.6395 47.6831L16.561 41.6046L41.0945 16.9247Z" fill="#F0B90B" stroke="#F0B90B" stroke-width="0.983957"/>
<path d="M13.4118 26.1522L19.4903 32.3771L13.4118 38.4556L7.33337 32.3771L13.4118 26.1522Z" fill="#F0B90B" stroke="#F0B90B" stroke-width="0.983957"/>
<path d="M50.3217 26.1522L56.4001 32.3771L31.8667 56.9106L25.7882 50.8322L50.3217 26.1522Z" fill="#F0B90B" stroke="#F0B90B" stroke-width="0.983957"/>
</svg>

<svg xmlns="http://www.w3.org/2000/svg" width="64" height="65" fill="none" viewBox="0 0 64 65"><rect width="64" height="64" y=".304" fill="#fff" rx="32"/><rect width="63" height="63" x=".5" y=".804" stroke="#070B14" stroke-opacity=".15" rx="31.5"/><path fill="#F0B90B" stroke="#F0B90B" stroke-width=".984" d="m31.867 7.697 6.078 6.225L22.64 29.228l-6.08-6.078zm9.228 9.228 6.078 6.225L22.64 47.683l-6.079-6.078zm-27.683 9.227 6.078 6.225-6.078 6.079-6.079-6.079zm36.91 0 6.078 6.225-24.533 24.534-6.079-6.079z"/></svg>
